dist/flags/l/320.svg

<svg width="32" height="24" viewBox="0 0 32 24" fill="none" xmlns="http://www.w3.org/2000/svg">
<mask id="mask0" mask-type="alpha" maskUnits="userSpaceOnUse" x="0" y="0" width="32" height="24">
<rect width="32" height="24" fill="white"/>
</mask>
<g mask="url(#mask0)">
<path fill-rule="evenodd" clip-rule="evenodd" d="M22 0H32V24H22V0Z" fill="#58A5FF"/>
<path fill-rule="evenodd" clip-rule="evenodd" d="M0 0H12V24H0V0Z" fill="#58A5FF"/>
<path fill-rule="evenodd" clip-rule="evenodd" d="M10 0H22V24H10V0Z" fill="white"/>
<path fill-rule="evenodd" clip-rule="evenodd" d="M11.7684 15.7185L12.2902 16.4015L14.6595 13.1896V12.621L11.7684 15.7185Z" fill="#6C301F"/>
<path d="M13.4043 12.1357L13.5775 11.8971C15.8213 13.5842 17.411 14.8793 18.2998 15.9585L17.7448 16.4157C16.9 15.3899 15.6064 13.7914 13.4043 12.1357Z" fill="#979797"/>
<path d="M17.0211 10.7256L16.7629 10.4753L18.1777 9.01615L18.4876 9.31728L19.9564 7.94958L20.2014 8.2127L18.4824 9.81343L18.1853 9.5248L17.0211 10.7256Z" fill="#979797"/>
<path fill-rule="evenodd" clip-rule="evenodd" d="M12.5058 8.44546C12.4303 8.11714 12.3451 7.71167 12.3451 7.71167C12.1557 8.14382 12.096 8.53698 12.1721 8.88855C12.0916 8.99936 12.0186 9.10316 11.9533 9.19999C11.7496 8.93089 11.4954 8.42759 11.4954 8.42759C11.5043 8.57414 11.5002 8.72364 11.4963 8.86882C11.4872 9.20994 11.4787 9.52714 11.6388 9.72578L11.6369 9.72974C11.6049 9.79555 11.5747 9.86124 11.5461 9.9268C11.3253 9.70667 10.9589 9.30975 10.9589 9.30975C10.9876 9.78573 11.1193 10.1608 11.3587 10.4284C11.3154 10.5679 11.2796 10.7067 11.2513 10.8446C11.0662 10.6531 10.8876 10.4639 10.8876 10.4639C10.9138 10.8982 10.9865 11.1852 11.1752 11.4263C11.1714 11.4948 11.1695 11.5632 11.1694 11.6312C10.9738 11.4295 10.7749 11.2187 10.7749 11.2187C10.8025 11.6771 10.9812 11.9787 11.2166 12.2297C11.24 12.3749 11.2719 12.5184 11.3122 12.6603L11.3337 12.7352C11.0675 12.6066 10.7766 12.4605 10.7766 12.4605C10.9503 12.861 11.2039 13.0816 11.4923 13.236C11.554 13.4154 11.619 13.5889 11.6872 13.7559C11.375 13.671 10.9087 13.5315 10.9087 13.5315C11.1853 13.9501 11.5245 14.1165 11.8889 14.2122C11.9634 14.3678 12.0407 14.5164 12.1207 14.6576C11.8248 14.5746 11.4776 14.4706 11.4776 14.4706C11.7461 14.8772 12.0738 15.0459 12.4264 15.1429C12.6589 15.4735 12.9079 15.7451 13.1677 15.9485C12.8814 16.0785 12.5209 16.234 12.5209 16.234C12.928 16.355 13.2533 16.3087 13.5502 16.194C13.5619 16.1998 13.5735 16.2056 13.5852 16.2112C13.7133 16.2726 13.8568 16.3304 14.0187 16.3869C13.7839 16.4914 13.5603 16.5878 13.5603 16.5878C13.958 16.706 14.2776 16.6646 14.569 16.5557L14.6006 16.5643C14.7435 16.6032 14.8889 16.6405 15.0806 16.688C14.9538 16.6566 15.4217 16.772 15.5167 16.7962C15.8209 16.8736 15.9941 16.9279 16.0772 16.9748C16.085 16.9791 16.0907 16.9827 16.0942 16.985L16.0943 16.985C16.0979 16.9873 16.0994 16.9883 16.0986 16.9872L16.3313 16.8182C16.3043 16.781 16.2668 16.7515 16.2184 16.7242C16.1043 16.6599 15.9191 16.6018 15.5876 16.5174C15.4933 16.4934 15.0401 16.3817 15.1428 16.4071C14.9565 16.3609 14.8148 16.3246 14.6762 16.2868C14.6348 16.2755 14.5944 16.2643 14.555 16.2531C14.5881 15.9473 14.5495 15.6303 14.341 15.2771C14.341 15.2771 14.2503 15.8288 14.1887 16.1409C14.0048 16.0795 13.8463 16.0173 13.7094 15.9518C13.6632 15.9296 13.6171 15.9049 13.5711 15.8776C13.5527 15.5656 13.4611 15.2553 13.19 14.9386C13.19 14.9386 13.1941 15.2892 13.1925 15.5931C13.0035 15.4205 12.8199 15.2058 12.645 14.9538L12.7675 15.0188C12.781 14.6297 12.7211 14.2462 12.3844 13.8528C12.3844 13.8528 12.3888 14.232 12.3867 14.5435C12.2774 14.3527 12.1727 14.1465 12.0734 13.9263C12.1656 13.6238 12.1878 13.2978 12.0397 12.9028C12.0397 12.9028 11.9517 13.1536 11.8594 13.4066C11.8323 13.3347 11.8058 13.2616 11.7799 13.1873C11.9685 12.8708 12.0895 12.5203 11.9996 12.0377C11.9996 12.0377 11.7852 12.419 11.6218 12.6955C11.6107 12.6578 11.5997 12.6199 11.5889 12.5818C11.5545 12.4607 11.5267 12.3382 11.5056 12.2145C11.7744 11.9868 11.9916 11.7031 12.0687 11.2397C12.0687 11.2397 11.7093 11.5484 11.4589 11.7531C11.4554 11.6502 11.4566 11.5464 11.4624 11.442C11.7517 11.2663 12.0009 11.0265 12.1513 10.6005C12.1513 10.6005 11.7969 10.8106 11.5202 10.9672C11.5399 10.8625 11.5642 10.7572 11.5931 10.6513L11.5935 10.6614C11.9372 10.4786 12.2394 10.2349 12.4117 9.74666C12.4117 9.74666 12.0556 9.95778 11.7787 10.1144C11.8146 10.0284 11.8535 9.94208 11.8956 9.8554C11.9457 9.75235 12.0167 9.62939 12.1087 9.48671C12.4155 9.3895 12.7012 9.22096 12.9441 8.86677C12.9441 8.86677 12.6987 8.93556 12.4443 9.00367C12.5918 8.80271 12.7649 8.57787 12.9633 8.32944L12.7386 8.14993C12.6568 8.2523 12.5792 8.35081 12.5058 8.44546Z" fill="#5AB92D"/>
<path fill-rule="evenodd" clip-rule="evenodd" d="M19.6337 8.44546C19.7092 8.11714 19.7944 7.71167 19.7944 7.71167C19.9838 8.14382 20.0435 8.53698 19.9674 8.88855C20.048 8.99936 20.1209 9.10316 20.1862 9.19999C20.3899 8.93089 20.6441 8.42759 20.6441 8.42759C20.6353 8.57414 20.6393 8.72364 20.6432 8.86882C20.6523 9.20994 20.6609 9.52714 20.5007 9.72578L20.5026 9.72974C20.5346 9.79555 20.5649 9.86124 20.5935 9.9268C20.8142 9.70667 21.1806 9.30975 21.1806 9.30975C21.1519 9.78573 21.0202 10.1608 20.7808 10.4284C20.8242 10.5679 20.8599 10.7067 20.8882 10.8446C21.0734 10.6531 21.2519 10.4639 21.2519 10.4639C21.2257 10.8982 21.1531 11.1852 20.9643 11.4263C20.9681 11.4948 20.9701 11.5632 20.9702 11.6312C21.1658 11.4295 21.3646 11.2187 21.3646 11.2187C21.337 11.6771 21.1583 11.9787 20.9229 12.2297C20.8995 12.3749 20.8676 12.5184 20.8274 12.6603L20.8058 12.7352C21.072 12.6066 21.3629 12.4605 21.3629 12.4605C21.1892 12.861 20.9357 13.0816 20.6472 13.236C20.5856 13.4154 20.5205 13.5889 20.4523 13.7559C20.7645 13.671 21.2308 13.5315 21.2308 13.5315C20.9543 13.9501 20.6151 14.1165 20.2506 14.2122C20.1761 14.3678 20.0988 14.5164 20.0189 14.6576C20.3147 14.5746 20.662 14.4706 20.662 14.4706C20.3934 14.8772 20.0657 15.0459 19.7132 15.1429C19.4806 15.4735 19.2316 15.7451 18.9719 15.9485C19.2581 16.0785 19.6186 16.234 19.6186 16.234C19.2115 16.355 18.8862 16.3087 18.5893 16.194C18.5777 16.1998 18.566 16.2056 18.5543 16.2112C18.4262 16.2726 18.2827 16.3304 18.1208 16.3869C18.3556 16.4914 18.5792 16.5878 18.5792 16.5878C18.1815 16.706 17.8619 16.6646 17.5706 16.5557L17.539 16.5643C17.396 16.6032 17.2506 16.6405 17.059 16.688C17.1857 16.6566 16.7179 16.772 16.6228 16.7962C16.3187 16.8736 16.1455 16.9279 16.0623 16.9748C16.0546 16.9791 16.0489 16.9827 16.0453 16.985L16.0453 16.985C16.0416 16.9873 16.0402 16.9883 16.0409 16.9872L15.8082 16.8182C15.8352 16.781 15.8727 16.7515 15.9211 16.7242C16.0352 16.6599 16.2204 16.6018 16.5519 16.5174C16.6462 16.4934 17.0994 16.3817 16.9968 16.4071C17.183 16.3609 17.3247 16.3246 17.4634 16.2868C17.5047 16.2755 17.5451 16.2643 17.5846 16.2531C17.5514 15.9473 17.59 15.6303 17.7985 15.2771C17.7985 15.2771 17.8892 15.8288 17.9508 16.1409C18.1348 16.0795 18.2932 16.0173 18.4301 15.9518C18.4763 15.9296 18.5224 15.9049 18.5684 15.8776C18.5868 15.5656 18.6785 15.2553 18.9495 14.9386C18.9495 14.9386 18.9455 15.2892 18.947 15.5931C19.136 15.4205 19.3196 15.2058 19.4946 14.9538L19.372 15.0188C19.3585 14.6297 19.4185 14.2462 19.7551 13.8528C19.7551 13.8528 19.7507 14.232 19.7528 14.5435C19.8621 14.3527 19.9668 14.1465 20.0661 13.9263C19.9739 13.6238 19.9517 13.2978 20.0998 12.9028C20.0998 12.9028 20.1878 13.1536 20.2802 13.4066C20.3072 13.3347 20.3337 13.2616 20.3596 13.1873C20.1711 12.8708 20.05 12.5203 20.1399 12.0377C20.1399 12.0377 20.3543 12.419 20.5177 12.6955C20.5289 12.6578 20.5398 12.6199 20.5507 12.5818C20.585 12.4607 20.6128 12.3382 20.6339 12.2145C20.3652 11.9868 20.1479 11.7031 20.0708 11.2397C20.0708 11.2397 20.4302 11.5484 20.6806 11.7531C20.6841 11.6502 20.683 11.5464 20.6772 11.442C20.3878 11.2663 20.1386 11.0265 19.9882 10.6005C19.9882 10.6005 20.3426 10.8106 20.6193 10.9672C20.5996 10.8625 20.5754 10.7572 20.5464 10.6513L20.546 10.6614C20.2023 10.4786 19.9002 10.2349 19.7278 9.74666C19.7278 9.74666 20.0839 9.95778 20.3609 10.1144C20.325 10.0284 20.286 9.94208 20.2439 9.8554C20.1938 9.75235 20.1228 9.62939 20.0309 9.48671C19.724 9.3895 19.4383 9.22096 19.1954 8.86677C19.1954 8.86677 19.4408 8.93556 19.6953 9.00367C19.5477 8.80271 19.3746 8.57787 19.1762 8.32944L19.4009 8.14993C19.4827 8.2523 19.5603 8.35081 19.6337 8.44546Z" fill="#5AB92D"/>
<path fill-rule="evenodd" clip-rule="evenodd" d="M13.4174 9.32297L14.6245 12.5222H13.7372C13.7372 12.5222 13.4174 13.5318 14.0209 13.5318C14.6245 13.5318 17.7349 13.5318 17.7349 13.5318C17.7349 13.5318 18.1393 13.2787 17.9371 12.5222C17.7349 11.7657 16.7133 9.67747 16.7133 9.67747C16.7133 9.67747 17.1499 9.3309 17.1499 9.07401C17.1499 8.81711 16.7133 8.78882 16.7133 8.78882H13.9578C13.6061 8.84582 13.4174 9.32297 13.4174 9.32297Z" fill="#EFE298"/>
<path d="M14.444 10.5008L16.3189 10.3844L14.444 10.5008Z" fill="#C5A042"/>
<path d="M14.444 10.5008L16.3189 10.3844" stroke="#B47D00" stroke-width="0.5"/>
<path d="M14.9003 11.5211L16.7752 11.4046L14.9003 11.5211Z" fill="#C5A042"/>
<path d="M14.9003 11.5211L16.7752 11.4046" stroke="#B47D00" stroke-width="0.5"/>
<path d="M15.2566 12.5414L17.1315 12.425L15.2566 12.5414Z" fill="#C5A042"/>
<path d="M15.2566 12.5414L17.1315 12.425" stroke="#B47D00" stroke-width="0.5"/>
<path fill-rule="evenodd" clip-rule="evenodd" d="M15.8805 7.58765C15.8805 7.58765 15.5917 7.6463 15.5917 7.82871C15.5917 8.01112 15.5137 8.16665 15.5137 8.16665C15.5137 8.16665 15.6018 8.99862 16.2601 9.19168C16.9185 9.38474 17.3044 9.4311 17.5816 9.81837C17.8587 10.2056 18.7089 11.299 18.3679 12.2419C18.027 13.1848 17.7593 13.666 17.7593 13.666C17.7593 13.666 19.0029 12.4946 19.0029 11.9392C19.0029 11.3838 18.8191 10.8457 18.2682 10.1405C17.7172 9.43531 17.4609 9.02307 17.0505 8.70534C16.64 8.38761 16.0519 8.09442 16.0519 8.09442C16.0519 8.09442 16.2612 7.87059 16.1565 7.76535C16.0519 7.66011 15.8805 7.58765 15.8805 7.58765Z" fill="#5AB92D"/>
</g>
</svg>

<svg width="32" height="24" fill="none" xmlns="http://www.w3.org/2000/svg">
  <mask id="a" maskUnits="userSpaceOnUse" x="0" y="0" width="32" height="24">
    <path fill="#fff" d="M0 0h32v24H0z"/>
  </mask>
  <g mask="url(#a)">
    <path fill-rule="evenodd" clip-rule="evenodd" d="M22 0h10v24H22V0zM0 0h12v24H0V0z" fill="#58A5FF"/>
    <path fill-rule="evenodd" clip-rule="evenodd" d="M10 0h12v24H10V0z" fill="#fff"/>
    <path fill-rule="evenodd" clip-rule="evenodd" d="M11.768 15.718l.522.683 2.37-3.211v-.569l-2.892 3.097z" fill="#6C301F"/>
    <path d="M13.404 12.136l.174-.239c2.243 1.687 3.833 2.982 4.722 4.062l-.555.457c-.845-1.026-2.139-2.625-4.34-4.28zm3.617-1.41l-.258-.25 1.415-1.46.31.301 1.468-1.367.245.263-1.719 1.6-.297-.288-1.164 1.2z" fill="#979797"/>
    <path fill-rule="evenodd" clip-rule="evenodd" d="M12.506 8.445c-.076-.328-.16-.733-.16-.733-.19.432-.25.825-.174 1.176-.08.111-.153.215-.219.312-.203-.27-.458-.772-.458-.772.01.146.005.296.001.44-.009.342-.017.66.143.858l-.002.004a5.267 5.267 0 00-.09.197c-.222-.22-.588-.617-.588-.617.029.476.16.85.4 1.118a4.36 4.36 0 00-.108.416c-.185-.191-.363-.38-.363-.38.026.434.098.721.287.962a3.805 3.805 0 00-.006.205c-.195-.202-.394-.412-.394-.412.027.458.206.76.442 1.01.023.146.055.29.095.431l.022.075a37.623 37.623 0 01-.557-.275c.173.4.427.621.715.776.062.18.127.353.195.52a39.607 39.607 0 01-.778-.225c.276.419.615.585.98.681.074.156.152.304.232.446a45.819 45.819 0 01-.643-.187c.268.406.596.575.948.672.233.33.482.602.742.805-.287.13-.647.286-.647.286.407.12.732.075 1.03-.04l.034.017c.128.062.272.12.434.176-.235.104-.459.2-.459.2a1.51 1.51 0 001.009-.031l.032.008c.142.04.288.076.48.124l.436.108c.304.078.477.132.56.179l.017.01.005.002.232-.169a.34.34 0 00-.113-.094c-.114-.064-.299-.122-.63-.207l-.445-.11a19.879 19.879 0 01-.588-.154 1.508 1.508 0 00-.214-.976s-.09.552-.152.864a4.189 4.189 0 01-.48-.19 1.823 1.823 0 01-.138-.073 1.51 1.51 0 00-.381-.94s.004.351.003.655a3.79 3.79 0 01-.548-.64l.123.066c.013-.39-.047-.773-.384-1.166 0 0 .005.379.003.69a7.203 7.203 0 01-.314-.617 1.511 1.511 0 00-.033-1.023s-.088.25-.18.503a9.477 9.477 0 01-.08-.219c.189-.316.31-.667.22-1.15 0 0-.215.382-.378.658a3.493 3.493 0 01-.116-.481c.268-.227.486-.511.563-.974 0 0-.36.308-.61.513a3.478 3.478 0 01.003-.311c.29-.176.539-.416.69-.841 0 0-.355.21-.632.366.02-.105.044-.21.073-.316v.01c.344-.182.646-.426.819-.914 0 0-.356.21-.633.367a3.644 3.644 0 01.33-.628c.306-.097.592-.265.835-.62 0 0-.245.07-.5.138.148-.201.32-.426.52-.675l-.225-.18-.233.296z" fill="#5AB92D"/>
    <path fill-rule="evenodd" clip-rule="evenodd" d="M19.634 8.445c.075-.328.16-.733.16-.733.19.432.25.825.173 1.176.081.111.154.215.22.312.203-.27.457-.772.457-.772a5.113 5.113 0 000 .44c.008.342.017.66-.143.858l.002.004c.032.065.062.131.09.197.221-.22.588-.617.588-.617-.03.476-.16.85-.4 1.118.043.14.079.279.107.416.185-.191.364-.38.364-.38-.026.434-.099.721-.288.962.004.069.006.137.006.205.196-.202.395-.412.395-.412-.028.458-.207.76-.442 1.01a3.79 3.79 0 01-.096.431l-.021.075c.266-.128.557-.275.557-.275-.174.4-.427.621-.716.776-.061.18-.127.353-.195.52.313-.085.779-.225.779-.225-.277.419-.616.585-.98.681a7.347 7.347 0 01-.232.446c.296-.083.643-.187.643-.187-.269.406-.596.575-.949.672-.232.33-.481.602-.741.805.286.13.647.286.647.286a1.512 1.512 0 01-1.03-.04 4.202 4.202 0 01-.469.193c.236.104.46.2.46.2a1.509 1.509 0 01-1.01-.031l-.031.008c-.143.04-.288.076-.48.124l-.436.108c-.304.078-.478.132-.56.179l-.018.01-.004.002-.233-.169a.34.34 0 01.113-.094c.114-.064.3-.122.63-.207l.446-.11a20.14 20.14 0 00.588-.154 1.507 1.507 0 01.213-.976s.091.552.153.864a4.29 4.29 0 00.48-.19c.045-.021.091-.046.137-.073a1.51 1.51 0 01.381-.94s-.004.351-.002.655a3.78 3.78 0 00.548-.64l-.123.066c-.014-.39.047-.773.383-1.166 0 0-.004.379-.002.69.11-.19.214-.397.313-.617a1.511 1.511 0 01.034-1.023s.088.25.18.503l.08-.219c-.189-.316-.31-.667-.22-1.15 0 0 .214.382.378.658l.033-.113c.034-.121.062-.244.083-.368a1.534 1.534 0 01-.563-.974s.36.308.61.513a3.478 3.478 0 00-.004-.311 1.524 1.524 0 01-.689-.841s.355.21.631.366a3.986 3.986 0 00-.073-.316v.01c-.344-.182-.646-.426-.818-.914 0 0 .356.21.633.367a3.66 3.66 0 00-.33-.628 1.514 1.514 0 01-.836-.62s.246.07.5.138c-.147-.201-.32-.426-.519-.675l.225-.18.233.296z" fill="#5AB92D"/>
    <path fill-rule="evenodd" clip-rule="evenodd" d="M13.417 9.323l1.207 3.2h-.887s-.32 1.009.284 1.009h3.714s.404-.253.202-1.01c-.202-.756-1.224-2.845-1.224-2.845s.437-.346.437-.603-.437-.285-.437-.285h-2.755c-.352.057-.54.534-.54.534z" fill="#EFE298"/>
    <path d="M14.444 10.5l1.875-.116-1.875.117z" fill="#C5A042"/>
    <path d="M14.444 10.5l1.875-.116" stroke="#B47D00" stroke-width=".5"/>
    <path d="M14.9 11.521l1.875-.116-1.875.116z" fill="#C5A042"/>
    <path d="M14.9 11.521l1.875-.116" stroke="#B47D00" stroke-width=".5"/>
    <path d="M15.257 12.541l1.874-.116-1.874.116z" fill="#C5A042"/>
    <path d="M15.257 12.541l1.874-.116" stroke="#B47D00" stroke-width=".5"/>
    <path fill-rule="evenodd" clip-rule="evenodd" d="M15.88 7.588s-.288.058-.288.24c0 .183-.078.339-.078.339s.088.832.746 1.025c.659.193 1.044.24 1.322.626.277.388 1.127 1.48.786 2.424-.341.943-.609 1.424-.609 1.424s1.244-1.171 1.244-1.727c0-.555-.184-1.093-.735-1.799-.55-.705-.807-1.117-1.218-1.435-.41-.317-.998-.61-.998-.61s.21-.224.105-.33a1.011 1.011 0 00-.277-.177z" fill="#5AB92D"/>
  </g>
</svg>
